X:2
T:Reilly's Hornpipe
T:Cross the Fence
Z:robin.beech@mcgill.ca
R:hornpipe
M:4/4
L:1/8
K:G
(3DEF | G2BG AB (3cBA | dBge dBGB | ceAc BGDG | cABG AGFD |
GDB,D G,DB,D | BGBc dBGB | dgBd edcF | AGGF G2 :: AG | FDA,D ABcA |
BGB,D GBdg | ecc2 dBGB | cAag fdcA | DB B2 Dcc2 | d^cec dBGB |
dgBd edcF | AGGF G2 :: Bc | dgg2 dgbg | g2bg agfg | eaa2 agfe |
(3ded ^cA d2d=c | (3Bcd BG (3ABc AF | GDB,D G,GBc | dgBd edcF | AGGF G2:|
